!!!!SEGMENT: pl-kk--kk-i-7--098_gorczycki-grzegorz-gerwazy--insignis-mater-incarnati-dei.krn
!!!cenid: 16xx:937
!!!COM: Gorczycki, Grzegorz Gerwazy
!!!COM-rismID: pe30009207
!!!CDT: ~1666-1734/04/30
!!!CNT: Polish
!!!OTL: Insignis mater incarnati Dei
!!!PDT:
!!!AGN: Sacred
!!!YEC: Copyright 2022 Narodowy Instytut Fryderyka Chopina (https://polishscores.org)
!!!YEM: License CC-BY-4.0 (https://creativecommons.org/licenses/by/4.0)
!!!SMS-siglum: PL-Kk
!!!SMS-shelfmark: Kk.I.7
!!!SMS-shelfwork: 098 W
!!!SMS-variant:
!!!SMS-altvar:
!!!NIFC-rismSourceID: 300258077
!!!NIFC-rismChildID: 300258175
!!!NIFC-islandoraID: pl-kk:1956
!!!URL-pdf-islandora: https://repozytorium.nifc.pl/islandora/object/pl-kk%3A1956/datastream/PDF/view
!!!URL-scan: https://polish.musicsources.pl/pl/lokalizacje/galeria/rekopisy/6140 @EN{Scan on Polish Music Sources Website} @PL{Skany w portalu Dziedzictwo Muzyki Polskiej w otwartym dostępie}
!!!IIIF: https://repozytorium.nifc.pl/islandora/object/pl-kk%3A1956/datastream/IIIF/view
!!!ONB-nifc: UWAGA: C (skan 0077, s.146), A (0155, s.130), T(0242, s.146), B(0329, s.142). Następny utwór: Salve mundi Domina
!!!AIN: 1 alto 1 bass 2 tenor
!!!key: e
**kern	**text	**text	**text	**text	**kern	**text	**text	**text	**text	**kern	**text	**text	**text	**text	**kern	**text	**text	**text	**text
*part4	*part4	*part4	*part4	*part4	*part3	*part3	*part3	*part3	*part3	*part2	*part2	*part2	*part2	*part2	*part1	*part1	*part1	*part1	*part1
*staff4	*staff4	*staff4	*staff4	*staff4	*staff3	*staff3	*staff3	*staff3	*staff3	*staff2	*staff2	*staff2	*staff2	*staff2	*staff1	*staff1	*staff1	*staff1	*staff1
!	!LO:MO:null:mod=*v&colon;1	!LO:MO:null:mod=*v&colon;2	!LO:MO:null:mod=*v&colon;3	!LO:MO:null:mod=*v&colon;4	!	!LO:MO:null:mod=*v&colon;1	!LO:MO:null:mod=*v&colon;2	!LO:MO:null:mod=*v&colon;3	!LO:MO:null:mod=*v&colon;4	!	!LO:MO:null:mod=*v&colon;1	!LO:MO:null:mod=*v&colon;2	!LO:MO:null:mod=*v&colon;3	!LO:MO:null:mod=*v&colon;4	!	!LO:MO:null:mod=*v&colon;1	!LO:MO:null:mod=*v&colon;2	!LO:MO:null:mod=*v&colon;3	!LO:MO:null:mod=*v&colon;4
*	*null	*null	*null	*null	*	*null	*null	*null	*null	*	*null	*null	*null	*null	*	*null	*null	*null	*null
*I"BASSUS.	*	*	*	*	*I"TENOR.	*	*	*	*	*I"ALTVS.	*	*	*	*	*I"CANTVS.	*	*	*	*
*mI"Basso	*	*	*	*	*mI"Tenore I	*	*	*	*	*mI"Alto	*	*	*	*	*mI"Tenore II	*	*	*	*
*I'B	*	*	*	*	*I'T	*	*	*	*	*I'A	*	*	*	*	*I'S	*	*	*	*
*	*	*	*	*	*mI'T 1	*	*	*	*	*	*	*	*	*	*mI'T 2	*	*	*	*
*Ibass	*	*	*	*	*Itenor	*	*	*	*	*Ialto	*	*	*	*	*Itenor	*	*	*	*
*ICvox	*	*	*	*	*ICvox	*	*	*	*	*ICvox	*	*	*	*	*ICvox	*	*	*	*
*clefF4	*	*	*	*	*clefC4	*	*	*	*	*clefC3	*	*	*	*	*clefC4	*	*	*	*
*	*	*	*	*	*mclefGv2	*	*	*	*	*mclefG2	*	*	*	*	*mclefGv2	*	*	*	*
*k[f#]	*	*	*	*	*k[f#]	*	*	*	*	*k[f#]	*	*	*	*	*k[]	*	*	*	*
*	*	*	*	*	*	*	*	*	*	*	*	*	*	*	*mk[f#]	*	*	*	*
*e:	*	*	*	*	*e:	*	*	*	*	*e:	*	*	*	*	*e:	*	*	*	*
*M3/2	*	*	*	*	*M3/2	*	*	*	*	*M3/2	*	*	*	*	*M3/2	*	*	*	*
=1	=1	=1	=1	=1	=1	=1	=1	=1	=1	=1	=1	=1	=1	=1	=1	=1	=1	=1	=1
*xywh-#329:819,368,6502,1930	*	*	*	*	*xywh-#242:1062,431,6181,1769	*	*	*	*	*xywh-#155:1133,420,6246,1758	*	*	*	*	*xywh-#77:886,338,6324,2052	*	*	*	*
*2\right	*	*	*	*	*	*	*	*	*	*2\right	*	*	*	*	*2\right	*	*	*	*
!LO:TX:a:i:mod= :t=De B. V. Maria per Annum.	!	!	!	!	!LO:TX:a:i:mod= :t=De B. V. Maria per annum	!	!	!	!	!LO:TX:a:i:mod= :t=De B. V. Maria per annum.	!	!	!	!	!LO:TX:a:mod= :t=De B. V. Maria per annum	!	!	!	!
2E\	In-	Te	Com-	Mor-	2E/	In-	Te	Com-	Mor-	2g\	In-	Te	Com-	Mor-	2B\	In-	Te	Com-	Mor-
2E\	-si-	o	-pe-	-tis-	2G/	-si-	o	-pe-	-tis-	2g\	-si-	o	-pe-	-tis-	2B\	-si-	o	-pe-	-tis-
2D/	-gnis	Re-	-sce	-que	2A/	-gnis	Re-	-sce	-que	2f#\	-gnis	Re-	-sce	-que	2d\	-gnis	Re-	-sce	-que
=2	=2	=2	=2	=2	=2	=2	=2	=2	=2	=2	=2	=2	=2	=2	=2	=2	=2	=2	=2
!LO:SIC:o=4GG/	!	!	!LO:MO:mod=fa-	!	!	!	!	!	!	!	!	!	!LO:MO:mod=fa-	!	!	!	!	!	!
(4GG	Ma-	-gi-	Fa-	ho-	1B\	Ma-	-gi-	fa-	ho-	1g\	Ma-	-gi-	Fa-	ho-	1d\	Ma-	-gi-	fa-	ho-
!LO:SIC:o=(>4AA/	!	!	!	!	!	!	!	!	!	!	!	!	!	!	!	!	!	!	!
4AA	.	.	.	.	.	.	.	.	.	.	.	.	.	.	.	.	.	.	.
!LO:SIC:o=4BB/)	!	!	!	!	!	!	!	!	!	!	!	!	!	!	!	!	!	!	!
4BB	.	.	.	.	.	.	.	.	.	.	.	.	.	.	.	.	.	.	.
!LO:SIC:o=4C/	!	!	!	!	!	!	!	!	!	!	!	!	!	!	!	!	!	!	!
4C)	.	.	.	.	.	.	.	.	.	.	.	.	.	.	.	.	.	.	.
!	!	!	!	!LO:MO:mod=-ra	!	!	!	!	!	!	!	!	!	!	!	!	!	!	!
2D/	-ter	-na	-mem	-râ	2A/	-ter	-na	-mem	-ra	2f#\	-ter	-na	-mem	-ra	2d\	-ter	-na	-mem	-ra
=3	=3	=3	=3	=3	=3	=3	=3	=3	=3	=3	=3	=3	=3	=3	=3	=3	=3	=3	=3
!	!	!	!	!LO:MO:mod=o	!	!	!	!	!	!	!	!	!	!	!	!	!	!	!
2.E\	In-	o-	pe-	ô	2.G/	In-	o-	pe-	o	2.e\	In-	o-	pe-	o	2.B\	In-	o-	pe-	o
!	!	!	!	!LO:MO:mod=cle-	!	!	!	!	!LO:MO:mod=cle-	!	!	!	!	!LO:MO:mod=cle-	!	!	!	!	!LO:MO:mod=cle-
4E\	-car-	-rat	-stem	Cle-	4G/	-car-	-rat	-stem	Cle-	4e\	-car-	-rat	-stem	Cle-	4B\	-car-	-rat	-stem	Cle-
!	!	!LO:MO:mod=gens	!	!	!	!	!LO:MO:mod=gens	!	!	!	!	!	!	!	!	!	!LO:MO:mod=gens	!	!
2A\	-na-	Gens	at-	-mens	2A/	-na-	Gens	at-	-mens	2e\	-na-	gens	at-	-mens	2c\	-na-	Gens	at-	-mens
=4	=4	=4	=4	=4	=4	=4	=4	=4	=4	=4	=4	=4	=4	=4	=4	=4	=4	=4	=4
!	!	!LO:MO:mod=po-	!	!	!	!	!LO:MO:mod=po-	!	!	!	!	!	!	!	!	!	!	!	!
2E\	-ti	Po-	-que	Ma-	2G/	-ti	Po-	-que	Ma-	2e\	-ti	po-	-que	Ma-	2B\	-ti	po-	-que	Ma-
!	!	!	!	!LO:MO:mod=-ri-	!LO:SIC:o=1F#X/	!	!	!	!	!	!	!	!	!	!	!	!	!	!
2B\	De-	-lo-	bel-	-rï-	1F#	De-	-lo-	bel-	-ri-	(2e\	De-	-lo-	bel-	-ri-	1B\	De-	-lo-	bel-	-ri-
2BB/	.	.	.	.	.	.	.	.	.	2d#X\)	.	.	.	.	.	.	.	.	.
=5	=5	=5	=5	=5	=5	=5	=5	=5	=5	=5-	=5	=5	=5	=5	=5	=5	=5	=5	=5
!	!LO:MO:mod=-i	!	!LO:MO:mod=-la	!	!	!LO:MO:mod=-i	!LO:MO:mod=-na	!LO:MO:mod=-la	!LO:MO:mod=-a	!	!LO:MO:mod=-i	!	!	!	!	!	!	!	!
1.E\	-i:	-na	-la,	-a	1.E/	-i,	-na,	-la,	-a,	1.e\	-i,	-na	-la	-a	1.B\	-i	-na	-la	-a
=6	=6	=6	=6	=6	=6	=6	=6	=6	=6	=6	=6	=6	=6	=6	=6	=6	=6	=6	=6
!	!	!LO:MO:mod=iam	!	!	!	!	!LO:MO:mod=iam	!	!	!	!	!LO:MO:mod=iam	!	!LO:MO:mod=per	!	!LO:MO:mod=so-	!LO:MO:mod=iam	!	!
2E\	so-	Jam	re-	per	2E/	so-	jam	re-	per	2g\	so-	Jam	re-	Per	2B\	So-	Jam	re-	per
*	*	*	*	*	*2\right	*	*	*	*	*	*	*	*	*	*	*	*	*	*
!	!	!LO:MO:mod=iam	!	!LO:MO:mod=te	!	!	!LO:MO:mod=iam	!	!LO:MO:mod=te	!	!	!LO:MO:mod=iam	!	!LO:MO:mod=te	!	!	!LO:MO:mod=iam	!	!LO:MO:mod=te
2D/	-la	jam	-pel-	Te	2B\	-la	jam	-pel-	Te	2f#\	-la	jam	-pel-	Te	2d\	-la	jam	-pel-	Te
!	!	!	!	!LO:MO:mod=sit	!	!	!	!	!LO:MO:mod=sit	!	!	!	!	!LO:MO:mod=sit	!	!	!	!	!
2C#X/	pec-	la-	-le	no-	2c#X\	pec-	la-	-le	no-	2e\	pec-	la-	-le	no-	2A#X\	pec-	la-	-le	sit
=7	=7	=7	=7	=7	=7	=7	=7	=7	=7	=7	=7	=7	=7	=7	=7	=7	=7	=7	=7
!LO:SIC:o=4BB/	!	!	!	!LO:MO:mod=no-	!	!	!	!	!LO:MO:mod=no-	!	!	!	!	!LO:MO:mod=no-	!	!	!	!	!
(4BB	-ca-	-ben-	vi-	-bis	1d\	-ca-	-ben-	vi-	-bis	(4d\	-ca-	-ben-	vi-	-bis	1B\	-ca-	-ben-	vi-	no-
!LO:SIC:o=(4C#X/	!	!	!	!	!	!	!	!	!	!LO:TX:t=P:problem=♯ above	!	!	!	!	!	!	!	!	!
4C#	.	.	.	.	.	.	.	.	.	4c#X\	.	.	.	.	.	.	.	.	.
4D/	.	.	.	.	.	.	.	.	.	2B/)	.	.	.	.	.	.	.	.	.
4E/)	.	.	.	.	.	.	.	.	.	.	.	.	.	.	.	.	.	.	.
!	!	!	!LO:SIC:v:o=-ves	!LO:MO:mod=-bis	!	!LO:MO:mod=-ti	!	!LO:SIC:v:o=-ves	!LO:MO:mod=-bis	!	!	!	!LO:SIC:v:o=-ves	!LO:MO:mod=-bis	!	!	!	!LO:SIC:v:o=-ves	!
2F#\	-ti	-ti	-res	sit	2c#X\	-ti,	-ti	-res	sit	2f#,<\	-ti	-ti	-res	sit	2A#X/	-ti	-ti	-res	-bis
=8	=8	=8	=8	=8	=8	=8	=8	=8	=8	=8	=8	=8	=8	=8	=8	=8	=8	=8	=8
2.G\	non	ad-	ho-	pa-	2.B\	non	o-	ho-	pa-	2.d\	non	ad-	ho-	pa-	2.B\	non	ad-	ho-	pa-
4F#\	sub-	-sis	-sti-	-tens	4B\	sub-	-pe	-sti-	-tens	4d\	sub-	-sis	-sti-	-tens	4B\	sub-	-sis	-sti-	-tens
!	!LO:MO:mod=-ia-	!	!	!LO:MO:mod=cae-	!	!LO:MO:mod=-ia-	!	!	!LO:MO:mod=cae-	!	!LO:MO:mod=-ia-	!	!	!LO:MO:mod=cae-	!	!LO:MO:mod=-ia-	!	!	!LO:MO:mod=cae-
2E\	-ja-	o-	-um-	Cae-	2e\	-ja-	ad-	-um-	po-	2g\	-ja-	o-	-um-	Cae-	2B\	-ja-	o-	-um-	Cae-
*	*	*	*	*	*custos:d	*	*	*	*	*	*	*	*	*	*	*	*	*	*
!	!	!	!	!	!LO:LB:g=original	!	!	!	!	!	!	!	!	!	!	!	!	!	!
=9	=9	=9	=9	=9	=9	=9	=9	=9	=9	=9	=9	=9	=9	=9	=9	=9	=9	=9	=9
*	*	*	*	*	*xywh-#242:1312,1813,5956,1424	*	*	*	*	*	*	*	*	*	*	*	*	*	*
!	!	!	!LO:MO:mod=-que	!	!	!	!	!	!	!	!	!	!	!	!	!	!	!	!
2BB/	-ces	-pe	-q(ue)	-li	2d\	-ces	-sis	-que	-li	2f#\	-ces	-pe	-que	-li	2B\	-ces	-pe	-que	-li
!	!	!	!	!	!	!	!	!	!LO:MO:mod=vi-	!	!	!	!	!	!	!	!	!	!
1F#\	le-	pro-	te-	vi-	1c#X\	le-	pro-	te-	Vi-	1f#\	le-	pro-	te-	vi-	2B\	le-	pro-	te-	vi-
.	.	.	.	.	.	.	.	.	.	.	.	.	.	.	2A#X\	.	.	.	.
=10	=10	=10	=10	=10	=10	=10	=10	=10	=10	=10	=10	=10	=10	=10	=10	=10	=10	=10	=10
!	!	!LO:MO:mod=-na&colon;	!LO:MO:mod=-la.	!LO:MO:mod=-a.	!	!	!	!LO:MO:mod=-la.	!LO:MO:mod=-a.	!	!LO:MO:mod=-gi&colon;	!LO:MO:mod=-na&colon;	!LO:MO:mod=-la.	!LO:MO:mod=-a.	!	!	!LO:MO:mod=-na:	!LO:MO:mod=-la.	!LO:MO:mod=-a.
1.BB/	-gi:	-na	-la	-a	1.B\	-gi:	-na:	-la:	-a:	1.f#\	-gi	-na	-la	-a	1.B\	-gi:	-na	-la	-a
!LO:LB:g=original	!	!	!	!	!	!	!	!	!	!LO:LB:g=original	!	!	!	!	!LO:LB:g=original	!	!	!	!
!LO:MO:mod==11	!LO:MO:mod==11	!LO:MO:mod==11	!LO:MO:mod==11	!LO:MO:mod==11	!LO:MO:mod==11	!LO:MO:mod==11	!LO:MO:mod==11	!LO:MO:mod==11	!LO:MO:mod==11	!LO:MO:mod==11	!LO:MO:mod==11	!LO:MO:mod==11	!LO:MO:mod==11	!LO:MO:mod==11	!LO:MO:mod==11	!LO:MO:mod==11	!LO:MO:mod==11	!LO:MO:mod==11	!LO:MO:mod==11
=11!|:	=11!|:	=11!|:	=11!|:	=11!|:	=11!|:	=11!|:	=11!|:	=11!|:	=11!|:	=11!|:	=11!|:	=11!|:	=11!|:	=11!|:	=11!|:	=11!|:	=11!|:	=11!|:	=11!|:
*xywh-#329:1222,1818,6039,1561	*	*	*	*	*	*	*	*	*	*xywh-#155:1366,1693,5986,1542	*	*	*	*	*xywh-#77:980,1950,6271,1727	*	*	*	*
!	!	!	!	!	!	!LO:MO:mod=Ne	!LO:MO:mod=Pri-	!	!LO:MO:mod=O	!	!	!	!	!	!	!LO:MO:mod=Ne	!	!	!
2GG/	Ne	Pri-	Pa-	O	2d\	nè	pri-	Pa-	o	2g\	Ne	Pri-	Pa-	O	2B\	Nè	Pri-	Pa-	O
!	!	!LO:MO:mod=-mo	!	!	!	!	!	!	!LO:MO:mod=pi-	!	!	!	!	!LO:MO:mod=pi-	!	!	!	!	!LO:MO:mod=pi-
2AA/	nos	-mô	-tro-	pi-	2cn\	nos	-mo	-tro-	Pi-	(4e\	nos	-mo	-tro-	Pi-	2A/	nos	-mo	-tro-	Pi-
.	.	.	.	.	.	.	.	.	.	4f#\)	.	.	.	.	.	.	.	.	.
(4BB/	la-	pec-	-na	-a	2B\	la-	pec-	-na	-a	2g\	la-	pec-	-na	-a	2G/	la-	pec-	-na	-a
4C/)	.	.	.	.	.	.	.	.	.	.	.	.	.	.	.	.	.	.	.
=12	=12	=12	=12	=12	=12	=12	=12	=12	=12	=12	=12	=12	=12	=12	=12	=12	=12	=12	=12
1D\	-ba-	-ca-	no-	Ma-	1A\	-ba-	-ca-	no-	Ma-	(2g\	-ba-	-ca-	no-	Ma-	(2.d\	-ba-	-ca-	no-	Ma-
.	.	.	.	.	.	.	.	.	.	2f#\)	.	.	.	.	.	.	.	.	.
.	.	.	.	.	.	.	.	.	.	.	.	.	.	.	4c\)	.	.	.	.
2GG/	-mur	-to	-stra	-ter	2G/	-mur	-to	-stra	-ter	2g\	-mur	-to	-stra	-ter	2B\	-mur	-to	-stra	-ter
=13	=13	=13	=13	=13	=13	=13	=13	=13	=13	=13	=13	=13	=13	=13	=13	=13	=13	=13	=13
!	!	!LO:MO:mod=in-	!	!	!	!	!	!	!	!	!	!	!	!	!LO:SIC:o=2.F#X/	!	!LO:MO:mod=in-	!	!
2.D/	si-	In-	si-	si-	2.A\	si-	in-	si-	si-	2.f#\	si-	in-	si-	si-	2.F#	si-	In-	si-	si-
4BB/	-ne	-con-	-ne	-ne	4B\	-ne	-con-	-ne	-ne	4d\	-ne	-con-	-ne	-ne	4G/	-ne	-con-	-ne	-ne
2AA/	la-	-ta-	la-	la-	2c\	la-	-ta-	la-	la-	2f#\	la-	-ta-	la-	la-	2A\	la-	-ta-	la-	la-
=14	=14	=14	=14	=14	=14	=14	=14	=14	=14	=14	=14	=14	=14	=14	=14	=14	=14	=14	=14
2GG/	-be	-mi-	-be	-be	2B\	-be	-mi-	-be	-be	2g\	-be	-mi-	-be	-be	2B\	-be	-mi-	-be	-be
!	!LO:MO:mod=na-	!	!LO:MO:mod=na-	!	!	!	!	!	!	!	!	!	!	!	!	!	!	!	!
2C/	Na-	-na-	Na-	na-	1A\	na-	-na-	na-	na-	2g\	na-	-na-	na-	na-	(2c\	na-	-na-	na-	na-
2D\	.	.	.	.	.	.	.	.	.	2f#\	.	.	.	.	2A\)	.	.	.	.
=15	=15	=15	=15	=15	=15-	=15	=15	=15	=15	=15	=15	=15	=15	=15	=15	=15	=15	=15	=15
!	!LO:MO:mod=-ta	!LO:MO:mod=-ta	!LO:MO:mod=-ta	!LO:MO:mod=-ta	!	!	!	!	!	!	!	!	!	!	!	!	!	!	!
1.GG/	-ta.	-ta.	-ta!	-ta!	1.G/	-ta	-ta	-ta	-ta	1.g\	-ta	-ta	-ta	-ta	1.B\	-ta	-ta	-ta	-ta
=16	=16	=16	=16	=16	=16	=16	=16	=16	=16	=16	=16	=16	=16	=16	=16	=16	=16	=16	=16
!	!LO:MO:null:mod=Vir-	!	!LO:MO:null:mod=Vir-	!LO:MO:null:mod=Vir-	!	!LO:MO:null:mod=Vir-	!	!LO:MO:null:mod=Vir-	!LO:MO:null:mod=Vir-	!	!LO:MO:null:mod=Vir-	!	!LO:MO:null:mod=Vir-	!LO:MO:null:mod=Vir-	!	!LO:MO:null:mod=Vir-	!	!LO:MO:null:mod=Vir-	!LO:MO:null:mod=Vir-
1D\	.	Vir-	.	.	1A\	.	Vir-	.	.	1f#\	.	Vir-	.	.	1d\	.	Vir-	.	.
!	!LO:MO:null:mod=-go	!	!LO:MO:null:mod=-go	!LO:MO:null:mod=-go	!	!LO:MO:null:mod=-go	!	!LO:MO:null:mod=-go	!LO:MO:null:mod=-go	!	!LO:MO:null:mod=-go	!	!LO:MO:null:mod=-go	!LO:MO:null:mod=-go	!	!LO:MO:null:mod=-go	!	!LO:MO:null:mod=-go	!LO:MO:null:mod=-go
2G\	.	-go	.	.	2B\	.	-go	.	.	2d\	.	-go	.	.	2B\	.	-go	.	.
=17	=17	=17	=17	=17	=17-	=17	=17	=17	=17	=17	=17	=17	=17	=17	=17	=17	=17	=17	=17
!	!LO:MO:null:mod=Be-	!	!LO:MO:null:mod=Be-	!LO:MO:null:mod=Be-	!	!LO:MO:null:mod=Be-	!	!LO:MO:null:mod=Be-	!LO:MO:null:mod=Be-	!	!LO:MO:null:mod=Be-	!	!LO:MO:null:mod=Be-	!LO:MO:null:mod=Be-	!	!LO:MO:null:mod=Be-	!	!LO:MO:null:mod=Be-	!LO:MO:null:mod=Be-
2E\	.	Be-	.	.	2G/	.	Be-	.	.	2e\	.	Be-	.	.	2B\	.	Be-	.	.
!	!LO:MO:null:mod=-a-	!	!LO:MO:null:mod=-a-	!LO:MO:null:mod=-a-	!LO:SIC:o=1F#X/	!LO:MO:null:mod=-a-	!	!LO:MO:null:mod=-a-	!LO:MO:null:mod=-a-	!	!LO:MO:null:mod=-a-	!	!LO:MO:null:mod=-a-	!LO:MO:null:mod=-a-	!	!LO:MO:null:mod=-a-	!	!LO:MO:null:mod=-a-	!LO:MO:null:mod=-a-
1BB/	.	-a-	.	.	1F#	.	-a-	.	.	2e\	.	-a-	.	.	1B\	.	-a-	.	.
.	.	.	.	.	.	.	.	.	.	2d#X\	.	.	.	.	.	.	.	.	.
=18	=18	=18	=18	=18	=18	=18	=18	=18	=18	=18	=18	=18	=18	=18	=18	=18	=18	=18	=18
!	!LO:MO:null:mod=-ta.	!LO:MO:mod=-ta.	!LO:MO:null:mod=-ta.	!LO:MO:null:mod=-ta.	!LO:N:vis=0.	!LO:MO:null:mod=-ta.	!	!LO:MO:null:mod=-ta.	!LO:MO:null:mod=-ta.	!	!LO:MO:null:mod=-ta.	!	!LO:MO:null:mod=-ta.	!LO:MO:null:mod=-ta.	!	!LO:MO:null:mod=-ta.	!	!LO:MO:null:mod=-ta.	!LO:MO:null:mod=-ta.
1.E\	.	-ta!	.	.	1.E/	.	-ta.	.	.	1.e\	.	-ta.	.	.	1.B\	.	-ta.	.	.
!LO:MO:mod===	!LO:MO:mod===	!LO:MO:mod===	!LO:MO:mod===	!LO:MO:mod===	!LO:MO:mod===	!LO:MO:mod===	!LO:MO:mod===	!LO:MO:mod===	!LO:MO:mod===	!LO:MO:mod===	!LO:MO:mod===	!LO:MO:mod===	!LO:MO:mod===	!LO:MO:mod===	!LO:MO:mod===	!LO:MO:mod===	!LO:MO:mod===	!LO:MO:mod===	!LO:MO:mod===
=:|!	=:|!	=:|!	=:|!	=:|!	=:|!	=:|!	=:|!	=:|!	=:|!	=:|!	=:|!	=:|!	=:|!	=:|!	=:|!	=:|!	=:|!	=:|!	=:|!
*-	*-	*-	*-	*-	*-	*-	*-	*-	*-	*-	*-	*-	*-	*-	*-	*-	*-	*-	*-
!!!system-decoration: [*]
!!!RDF**kern: > = above
!!!RDF**kern: < = below
!!!filter-modern: shed -k -e "s/[,<]/$1/gD" | shed -e "s/TX(.*):t=P:/tx$1:t=P:/LG; s/^(\d+[\/\\]right)/$1yy/I; s/^custos:/Xcustos:/I; s/LO:N:/LO:n:$1/L" | shed -k -e "s/([^a-gA-Gn#X-])[<>]/$1/g" | sic -sq | modori -m | autostem -r | humtr -p | extract -k 1,4,2,3
!!!ENC: Krzysztof Stępień
!!!END: 2021-03-04
!!!EED: Andrzej Borzym
!!!EEV: 2021-03-20
!!!ENC-modern: Andrzej Kubiczek
!!!END-modern: 2023-08-01
!!!ENC-iiif: Lidia Bialucha
!!!END-iiif: 2022-09-15
